!!!COM: Varèse, Edgard [Edgar] (Victor Achille Charles)
!!!OTL: Offrandes (Offerings) for Soprano and Chamber Orchestra
!!!OMV: II: La Croix du Sud (The Southern Cross)
!!!example: 424
!!!work: Var-2
**kern	**kern	**dynam	**kern	**dynam	**kern	**dynam	**kern	**dynam	**kern	**dynam	**kern	**dynam	**kern	**dynam	**kern	**kern	**dynam	**kern	**dynam	**kern	**dynam	**kern	**dynam	**kern	**dynam	**kern	**dynam	**kern	**dynam	**kern	**dynam	**kern	**dynam	**kern	**dynam	**kern	**dynam	**kern	**dynam	**kern	**dynam	**kern	**dynam	**kern	**dynam
*part23	*part22	*part22	*part21	*part21	*part20	*part20	*part19	*part19	*part18	*part18	*part17	*part17	*part16	*part16	*part15	*part15	*part15	*part14	*part14	*part13	*part13	*part12	*part12	*part11	*part11	*part10	*part10	*part9	*part9	*part8	*part8	*part7	*part7	*part6	*part6	*part5	*part5	*part4	*part4	*part3	*part3	*part2	*part2	*part1	*part1
*staff24	*staff23	*	*staff22	*	*staff21	*	*staff20	*	*staff19	*	*staff18	*	*staff17	*	*staff16	*staff15	*	*staff14	*	*staff13	*	*staff12	*	*staff11	*	*staff10	*	*staff9	*	*staff8	*	*staff7	*	*staff6	*	*staff5	*	*staff4	*	*staff3	*	*staff2	*	*staff1	*
*I"G.	*I"Tr.	*	*I"T.B.	*	*I"Cttes	*	*I"Cymb.	*	*I"Gr.C.	*	*I"T.M.	*	*I"Ratsche	*	*I"Harp	*	*	*I"Contrabass	*	*I"Violoncello	*	*I"Viola	*	*I"Violin II	*	*I"Violin I	*	*I"Voice	*	*I"Trombone	*	*I"Trumpet in C	*	*I"Horn in F	*	*I"Bassoon	*	*I"Clarinet in Bb	*	*I"Oboe	*	*I"Piccolo	*	*I"Flute I.	*
*I'G.	*I'Tr.	*	*I'T.B.	*	*I'Cttes	*	*I'Cymb.	*	*I'Gr.C.	*	*I'T.M.	*	*I'Ratsche	*	*I'Hp.	*	*	*I'Cb.	*	*I'Vc.	*	*I'Vla.	*	*I'Vln. II	*	*I'Vln. I	*	*I'Voice	*	*I'Tbn.	*	*I'C Tpt.	*	*I'Hn.	*	*I'Bsn.	*	*I'Cl.	*	*I'Ob.	*	*I'Picc.	*	*I'Fl.	*
*clefpercussion2	*clefpercussion2	*	*clefpercussion2	*	*clefpercussion2	*	*clefpercussion2	*	*clefpercussion2	*	*clefpercussion2	*	*clefpercussion2	*	*clefF4	*clefG2	*	*clefF4	*	*clefF4	*	*clefC3	*	*clefG2	*	*clefG2	*	*clefG2	*	*clefF4	*	*clefG2	*	*clefG2	*	*clefF4	*	*clefG2	*	*clefG2	*	*clefG2	*	*clefG2	*
*	*	*	*	*	*	*	*	*	*	*	*	*	*	*	*	*	*	*ITrd0c0	*	*	*	*	*	*	*	*	*	*	*	*	*	*	*	*ITrd4c7	*	*	*	*ITrd1c2	*	*	*	*ITrd0c0	*	*	*
*k[]	*k[]	*	*k[]	*	*k[]	*	*k[]	*	*k[]	*	*k[]	*	*k[]	*	*k[]	*k[]	*	*k[]	*	*k[]	*	*k[]	*	*k[]	*	*k[]	*	*k[]	*	*k[]	*	*k[]	*	*k[]	*	*k[]	*	*k[]	*	*k[]	*	*k[]	*	*k[]	*
*C:	*C:	*	*C:	*	*C:	*	*C:	*	*C:	*	*C:	*	*C:	*	*C:	*C:	*	*C:	*	*C:	*	*C:	*	*C:	*	*C:	*	*C:	*	*C:	*	*C:	*	*C:	*	*C:	*	*C:	*	*C:	*	*C:	*	*C:	*
*M4/4	*M4/4	*	*M4/4	*	*M4/4	*	*M4/4	*	*M4/4	*	*M4/4	*	*M4/4	*	*M4/4	*M4/4	*	*M4/4	*	*M4/4	*	*M4/4	*	*M4/4	*	*M4/4	*	*M4/4	*	*M4/4	*	*M4/4	*	*M4/4	*	*M4/4	*	*M4/4	*	*M4/4	*	*M4/4	*	*M4/4	*
*MM121	*MM121	*	*MM121	*	*MM121	*	*MM121	*	*MM121	*	*MM121	*	*MM121	*	*MM121	*MM121	*	*MM121	*	*MM121	*	*MM121	*	*MM121	*	*MM121	*	*MM121	*	*MM121	*	*MM121	*	*MM121	*	*MM121	*	*MM121	*	*MM121	*	*MM121	*	*MM121	*
=28	=28	=28	=28	=28	=28	=28	=28	=28	=28	=28	=28	=28	=28	=28	=28	=28	=28	=28	=28	=28	=28	=28	=28	=28	=28	=28	=28	=28	=28	=28	=28	=28	=28	=28	=28	=28	=28	=28	=28	=28	=28	=28	=28	=28	=28
!	!	!	!	!	!	!	!LO:TX:a:i:t=mailloche	!	!	!	!	!	!	!	!	!	!	!	!	!	!	!	!	!	!	!	!	!	!	!	!	!	!	!	!	!	!	!	!	!	!	!	!	!	!
.	.	.	.	.	.	.	.	.	.	.	8qx/	.	.	.	.	.	.	.	.	.	.	.	.	.	.	.	.	.	.	.	.	.	.	.	.	.	.	.	.	.	.	.	.	.	.
2r	1r	.	4r	.	8r	.	4r	.	2r	.	8xL	.	1r	.	1r	1r	.	1r	.	1r	.	1r	.	1r	.	1r	.	8B	.	1r	.	2r	.	1r	.	1r	.	2r	.	2r	.	1r	.	2r	.
.	.	.	.	.	8qx/	.	.	.	.	.	.	.	.	.	.	.	.	.	.	.	.	.	.	.	.	.	.	.	.	.	.	.	.	.	.	.	.	.	.	.	.	.	.	.	.
.	.	.	.	.	8x	.	.	.	.	.	24xL	.	.	.	.	.	.	.	.	.	.	.	.	.	.	.	.	8B	.	.	.	.	.	.	.	.	.	.	.	.	.	.	.	.	.
.	.	.	.	.	.	.	.	.	.	.	24x	.	.	.	.	.	.	.	.	.	.	.	.	.	.	.	.	.	.	.	.	.	.	.	.	.	.	.	.	.	.	.	.	.	.
.	.	.	.	.	.	.	.	.	.	.	24x	.	.	.	.	.	.	.	.	.	.	.	.	.	.	.	.	.	.	.	.	.	.	.	.	.	.	.	.	.	.	.	.	.	.
.	.	.	12xL	.	4r	.	2.x	.	.	.	24x	.	.	.	.	.	.	.	.	.	.	.	.	.	.	.	.	8d	.	.	.	.	.	.	.	.	.	.	.	.	.	.	.	.	.
.	.	.	.	.	.	.	.	.	.	.	24x	.	.	.	.	.	.	.	.	.	.	.	.	.	.	.	.	.	.	.	.	.	.	.	.	.	.	.	.	.	.	.	.	.	.
.	.	.	36xL	.	.	.	.	.	.	.	24xJ	.	.	.	.	.	.	.	.	.	.	.	.	.	.	.	.	.	.	.	.	.	.	.	.	.	.	.	.	.	.	.	.	.	.
.	.	.	36x	.	.	.	.	.	.	.	.	.	.	.	.	.	.	.	.	.	.	.	.	.	.	.	.	.	.	.	.	.	.	.	.	.	.	.	.	.	.	.	.	.	.
.	.	.	.	.	.	.	.	.	.	.	8xJ	.	.	.	.	.	.	.	.	.	.	.	.	.	.	.	.	8B	.	.	.	.	.	.	.	.	.	.	.	.	.	.	.	.	.
.	.	.	36xJ	.	.	.	.	.	.	.	.	.	.	.	.	.	.	.	.	.	.	.	.	.	.	.	.	.	.	.	.	.	.	.	.	.	.	.	.	.	.	.	.	.	.
.	.	.	12xJ	.	.	.	.	.	.	.	.	.	.	.	.	.	.	.	.	.	.	.	.	.	.	.	.	.	.	.	.	.	.	.	.	.	.	.	.	.	.	.	.	.	.
.	.	.	.	.	.	.	.	.	.	.	8qx/	.	.	.	.	.	.	.	.	.	.	.	.	.	.	.	.	.	.	.	.	.	.	.	.	.	.	.	.	.	.	.	.	.	.
2x	.	.	2r	.	8r	.	.	.	6x	.	8x	.	.	.	.	.	.	.	.	.	.	.	.	.	.	.	.	4B	.	.	.	4r	.	.	.	.	.	4r	.	4r	.	.	.	4r	.
.	.	.	.	.	8qx/	.	.	.	.	.	.	.	.	.	.	.	.	.	.	.	.	.	.	.	.	.	.	.	.	.	.	.	.	.	.	.	.	.	.	.	.	.	.	.	.
.	.	.	.	.	8x	.	.	.	.	.	8r	.	.	.	.	.	.	.	.	.	.	.	.	.	.	.	.	.	.	.	.	.	.	.	.	.	.	.	.	.	.	.	.	.	.
.	.	.	.	.	.	.	.	.	6x	.	.	.	.	.	.	.	.	.	.	.	.	.	.	.	.	.	.	.	.	.	.	.	.	.	.	.	.	.	.	.	.	.	.	.	.
.	.	.	.	.	.	.	.	.	.	.	8qx/	.	.	.	.	.	.	.	.	.	.	.	.	.	.	.	.	.	.	.	.	.	.	.	.	.	.	.	.	.	.	.	.	.	.
.	.	.	.	.	4r	.	.	.	.	.	8x	.	.	.	.	.	.	.	.	.	.	.	.	.	.	.	.	4r	.	.	.	8r	.	.	.	.	.	8r	.	8r	.	.	.	8r	.
.	.	.	.	.	.	.	.	.	6r	.	.	.	.	.	.	.	.	.	.	.	.	.	.	.	.	.	.	.	.	.	.	.	.	.	.	.	.	.	.	.	.	.	.	.	.
.	.	.	.	.	.	.	.	.	.	.	8r	.	.	.	.	.	.	.	.	.	.	.	.	.	.	.	.	.	.	.	.	32r	.	.	.	.	.	32r	.	32r	.	.	.	32r	.
.	.	.	.	.	.	.	.	.	.	.	.	.	.	.	.	.	.	.	.	.	.	.	.	.	.	.	.	.	.	.	.	(>32a#XLLL	ff	.	.	.	.	(>32eeLLL	ff	(>32aa#XLLL	ff	.	.	(<32eLLL	ff
.	.	.	.	.	.	.	.	.	.	.	.	.	.	.	.	.	.	.	.	.	.	.	.	.	.	.	.	.	.	.	.	32b	.	.	.	.	.	32ff	.	32bb	.	.	.	32f	.
.	.	.	.	.	.	.	.	.	.	.	.	.	.	.	.	.	.	.	.	.	.	.	.	.	.	.	.	.	.	.	.	32cc#XJJJ)	.	.	.	.	.	32ff#XJJJ)	.	32ccc#XJJJ)	.	.	.	32f#XJJJ)	.
=29	=29	=29	=29	=29	=29	=29	=29	=29	=29	=29	=29	=29	=29	=29	=29	=29	=29	=29	=29	=29	=29	=29	=29	=29	=29	=29	=29	=29	=29	=29	=29	=29	=29	=29	=29	=29	=29	=29	=29	=29	=29	=29	=29	=29	=29
*M5/4	*M5/4	*	*M5/4	*	*M5/4	*	*M5/4	*	*M5/4	*	*M5/4	*	*M5/4	*	*M5/4	*M5/4	*	*M5/4	*	*M5/4	*	*M5/4	*	*M5/4	*	*M5/4	*	*M5/4	*	*M5/4	*	*M5/4	*	*M5/4	*	*M5/4	*	*M5/4	*	*M5/4	*	*M5/4	*	*M5/4	*
!	!	!	!	!	!	!	!	!	!	!	!	!	!LO:TX:t=[quarter]=120	!	!	!	!	!	!	!	!	!	!	!	!	!	!	!	!	!	!	!	!	!	!	!	!	!	!	!	!	!	!	!	!
4%5r	4%5r	.	4%5r	.	4%5r	.	4%5r	.	4%5r	.	4%5r	.	2.x	p	4%5r	4%5r	.	4%5r	.	4%5r	.	4%5r	.	4%5r	.	4%5r	.	4%5r	.	2r	.	4dd^	.	2r	.	2r	.	4gg^	.	4ddd^	.	4%5r	.	4g^	.
!	!	!	!	!	!	!	!	!	!	!	!	!	!	!	!	!	!	!	!	!	!	!	!	!	!	!	!	!	!	!	!	!	!	!	!	!	!	!	!	!	!	!	!	!LO:TX:t=[quarter]=120	!
.	.	.	.	.	.	.	.	.	.	.	.	.	.	.	.	.	.	.	.	.	.	.	.	.	.	.	.	.	.	.	.	6dd-X~	.	.	.	.	.	6gg-X~	.	6ddd-X~	.	.	.	6g-X~	.
.	.	.	.	.	.	.	.	.	.	.	.	.	.	.	.	.	.	.	.	.	.	.	.	.	.	.	.	.	.	.	.	6dd-~	.	.	.	.	.	6gg-~	.	6ddd-~	.	.	.	6g-~	.
.	.	.	.	.	.	.	.	.	.	.	.	.	.	.	.	.	.	.	.	.	.	.	.	.	.	.	.	.	.	2r	.	.	.	2r	.	2r	.	.	.	.	.	.	.	.	.
.	.	.	.	.	.	.	.	.	.	.	.	.	.	.	.	.	.	.	.	.	.	.	.	.	.	.	.	.	.	.	.	6cc~	.	.	.	.	.	6ff~	.	6ccc~	.	.	.	6f~	.
.	.	.	.	.	.	.	.	.	.	.	.	.	2x	.	.	.	.	.	.	.	.	.	.	.	.	.	.	.	.	.	.	[2cc^	.	.	.	.	.	[2ff^	<	[2ccc^	<	.	.	[2f^	<
!	!	!	!	!	!	!	!	!	!	!	!	!	!	!	!	!	!	!	!	!	!	!	!	!	!	!	!	!	!	!	!	!	!	!	!	!LO:TX:b:t=sfff	!	!	!	!	!	!	!	!	!
.	.	.	.	.	.	.	.	.	.	.	.	.	.	.	.	.	.	.	.	.	.	.	.	.	.	.	.	.	.	4A^	fff	.	.	4g#X^	sf <	4c#X^	.	.	.	.	.	.	.	.	.
=30	=30	=30	=30	=30	=30	=30	=30	=30	=30	=30	=30	=30	=30	=30	=30	=30	=30	=30	=30	=30	=30	=30	=30	=30	=30	=30	=30	=30	=30	=30	=30	=30	=30	=30	=30	=30	=30	=30	=30	=30	=30	=30	=30	=30	=30
!	!	!	!	!	!	!	!	!	!	!	!	!	!	!	!	!	!	!	!	!	!	!LO:TX:a:t=(sans sourdine)	!	!	!	!	!	!	!	!	!	!	!	!	!	!	!	!	!	!	!	!	!	!	!
4%5r	4%5r	.	4%5r	.	4%5r	.	4%5r	.	4%5r	.	4%5r	.	4%5r	.	4%5r	4%5r	.	2r	.	2r	.	2r	.	4%5r	.	4%5r	.	4%5r	.	4A'	.	2.cc_	.	4g#X'	.	4c#X'	.	2.ff_	.	2.ccc_	.	4%5r	.	2.f_	.
.	.	.	.	.	.	.	.	.	.	.	.	.	.	.	.	.	.	.	.	.	.	.	.	.	.	.	.	.	.	4A^	.	.	.	4g#^	.	4c#^	.	.	.	.	.	.	.	.	.
.	.	.	.	.	.	.	.	.	.	.	.	.	.	.	.	.	.	[2.E	fff	[2.BB	fff	[2.D#X	fff	.	.	.	.	.	.	4A'	.	.	.	4g#'	.	4c#'	.	.	.	.	.	.	.	.	.
!	!	!	!	!	!	!	!	!	!	!	!	!	!	!	!	!	!	!	!	!	!	!	!	!	!	!	!	!	!	!	!	!	!	!LO:TX:b:t=sfff	!	!	!	!LO:TX:b:t=sfff	!	!LO:TX:b:t=sfff	!	!	!	!LO:TX:b:t=sfff	!
.	.	.	.	.	.	.	.	.	.	.	.	.	.	.	.	.	.	.	.	.	.	.	.	.	.	.	.	.	.	12B-X^L	.	8cc^]	.	12cc^L	[	12f^L	.	8ff^]	[	8ccc^]	[	.	.	8f^]	[
.	.	.	.	.	.	.	.	.	.	.	.	.	.	.	.	.	.	.	.	.	.	.	.	.	.	.	.	.	.	12A'	.	.	.	12g#'	.	12c#'	.	.	.	.	.	.	.	.	.
.	.	.	.	.	.	.	.	.	.	.	.	.	.	.	.	.	.	.	.	.	.	.	.	.	.	.	.	.	.	.	.	8r	.	.	.	.	.	8r	.	8r	.	.	.	8r	.
.	.	.	.	.	.	.	.	.	.	.	.	.	.	.	.	.	.	.	.	.	.	.	.	.	.	.	.	.	.	[12A^J	.	.	.	[12g#^J	.	[12c#^J	.	.	.	.	.	.	.	.	.
.	.	.	.	.	.	.	.	.	.	.	.	.	.	.	.	.	.	.	.	.	.	.	.	.	.	.	.	.	.	4A]	< [	4r	.	4g#]	.	4c#]	< [	4r	.	4r	.	.	.	4r	.
=31	=31	=31	=31	=31	=31	=31	=31	=31	=31	=31	=31	=31	=31	=31	=31	=31	=31	=31	=31	=31	=31	=31	=31	=31	=31	=31	=31	=31	=31	=31	=31	=31	=31	=31	=31	=31	=31	=31	=31	=31	=31	=31	=31	=31	=31
*M3/4	*M3/4	*	*M3/4	*	*M3/4	*	*M3/4	*	*M3/4	*	*M3/4	*	*M3/4	*	*M3/4	*M3/4	*	*M3/4	*	*M3/4	*	*M3/4	*	*M3/4	*	*M3/4	*	*M3/4	*	*M3/4	*	*M3/4	*	*M3/4	*	*M3/4	*	*M3/4	*	*M3/4	*	*M3/4	*	*M3/4	*
4%3r	4%3r	.	4%3r	.	4%3r	.	4%3r	.	4%3r	.	16%3r	f	[2.x	mf	4%3r	16%3r	fff	2.E_	.	2.BB_	.	2.D#_	.	4r	.	4r	.	4r	.	[2.B-X	.	4%3r	.	4%3r	.	[2.f	.	4r	.	4%3r	.	4%3r	.	4r	.
.	.	.	.	.	.	.	.	.	.	.	8qx/	.	.	.	.	.	.	.	.	.	.	.	.	.	.	.	.	.	.	.	.	.	.	.	.	.	.	.	.	.	.	.	.	.	.
.	.	.	.	.	.	.	.	.	.	.	32%3x	.	.	.	.	(<16%3c^	.	.	.	.	.	.	.	.	.	.	.	.	.	.	.	.	.	.	.	.	.	.	.	.	.	.	.	.	.
.	.	.	.	.	.	.	.	.	.	.	.	.	.	.	.	.	.	.	.	.	.	.	.	4r	.	4r	.	8ee-X	ff	.	.	.	.	.	.	.	.	4r	.	.	.	.	.	4r	.
.	.	.	.	.	.	.	.	.	.	.	32%3r	.	.	.	.	.	.	.	.	.	.	.	.	.	.	.	.	.	.	.	.	.	.	.	.	.	.	.	.	.	.	.	.	.	.
.	.	.	.	.	.	.	.	.	.	.	8qx/	.	.	.	.	.	.	.	.	.	.	.	.	.	.	.	.	.	.	.	.	.	.	.	.	.	.	.	.	.	.	.	.	.	.
.	.	.	.	.	.	.	.	.	.	.	32%3x	.	.	.	.	16%3A^	.	.	.	.	.	.	.	.	.	.	.	8ee-	.	.	.	.	.	.	.	.	.	.	.	.	.	.	.	.	.
.	.	.	.	.	.	.	.	.	.	.	32%3r	.	.	.	.	.	.	.	.	.	.	.	.	.	.	.	.	.	.	.	.	.	.	.	.	.	.	.	.	.	.	.	.	.	.
.	.	.	.	.	.	.	.	.	.	.	.	.	.	.	.	.	.	.	.	.	.	.	.	16r	.	16r	.	4aa	.	.	.	.	.	.	.	.	.	16r	.	.	.	.	.	16r	.
.	.	.	.	.	.	.	.	.	.	.	8qx/	.	.	.	.	.	.	.	.	.	.	.	.	.	.	.	.	.	.	.	.	.	.	.	.	.	.	.	.	.	.	.	.	.	.
.	.	.	.	.	.	.	.	.	.	.	32%3x	.	.	.	.	16%3d^	.	.	.	.	.	.	.	(>16cc#XLL	.	(>16ff#XLL	fff	.	.	.	.	.	.	.	.	.	.	(>16f#XLL	.	.	.	.	.	(>16ccc#XLL	.
.	.	.	.	.	.	.	.	.	.	.	.	.	.	.	.	.	.	.	.	.	.	.	.	16dd	.	16gg	.	.	.	.	.	.	.	.	.	.	.	16g	.	.	.	.	.	16ddd	.
.	.	.	.	.	.	.	.	.	.	.	32%3r	.	.	.	.	.	.	.	.	.	.	.	.	.	.	.	.	.	.	.	.	.	.	.	.	.	.	.	.	.	.	.	.	.	.
.	.	.	.	.	.	.	.	.	.	.	.	.	.	.	.	.	.	.	.	.	.	.	.	16dd#XJJ	.	16gg#XJJ	.	.	.	.	.	.	.	.	.	.	.	16g#XJJ	.	.	.	.	.	16ddd#XJJ	.
=32	=32	=32	=32	=32	=32	=32	=32	=32	=32	=32	=32	=32	=32	=32	=32	=32	=32	=32	=32	=32	=32	=32	=32	=32	=32	=32	=32	=32	=32	=32	=32	=32	=32	=32	=32	=32	=32	=32	=32	=32	=32	=32	=32	=32	=32
!	!	!	!	!	!	!	!	!	!	!	!	!	!	!	!	!	!	!	!	!	!	!	!	!	!	!	!	!	!	!	!	!LO:TX:a:t=(sord.)	!	!LO:TX:a:t=(sord.)	!	!	!	!	!	!	!	!	!	!	!
4%3r	4%3r	.	16%3r	f	4%3r	.	4%3r	.	4%3r	.	4%3r	.	2.x_	.	4%3r	16%3A)	.	2E_	.	2BB_	.	2D#_	.	[4ee^)	.	[4aa^)	.	[4ee-X	.	16B-XLL]	.	2r	.	2r	.	16fLL]	.	[4a^)	.	2r	.	4%3r	.	[4eee^)	.
.	.	.	.	.	.	.	.	.	.	.	.	.	.	.	.	.	.	.	.	.	.	.	.	.	.	.	.	.	.	(>16G	.	.	.	.	.	(>16d	.	.	.	.	.	.	.	.	.
.	.	.	.	.	.	.	.	.	.	.	.	.	.	.	.	.	.	.	.	.	.	.	.	.	.	.	.	.	.	16G#X	.	.	.	.	.	16d#X	.	.	.	.	.	.	.	.	.
.	.	.	32%3x^	.	.	.	.	.	.	.	.	.	.	.	.	(<16%3c^	.	.	.	.	.	.	.	.	.	.	.	.	.	16AJJ	.	.	.	.	.	16eJJ	.	.	.	.	.	.	.	.	.
.	.	.	.	.	.	.	.	.	.	.	.	.	.	.	.	.	.	.	.	.	.	.	.	16eeLL]	.	16aaLL]	.	8ee-]	.	[4B-X)	.	.	.	.	.	[4f)	.	16aLL]	.	.	.	.	.	16eeeLL]	.
.	.	.	32%3r	.	.	.	.	.	.	.	.	.	.	.	.	.	.	.	.	.	.	.	.	.	.	.	.	.	.	.	.	.	.	.	.	.	.	.	.	.	.	.	.	.	.
.	.	.	.	.	.	.	.	.	.	.	.	.	.	.	.	.	.	.	.	.	.	.	.	(>16cc#X	.	(>16ff#X	.	.	.	.	.	.	.	.	.	.	.	(<16f#X	.	.	.	.	.	(>16ccc#X	.
.	.	.	32%3x^	.	.	.	.	.	.	.	.	.	.	.	.	16%3A^	.	.	.	.	.	.	.	16dd	.	16gg	.	8cc	.	.	.	.	.	.	.	.	.	16g	.	.	.	.	.	16ddd	.
.	.	.	.	.	.	.	.	.	.	.	.	.	.	.	.	.	.	.	.	.	.	.	.	16dd#XJJ	.	16gg#XJJ	.	.	.	.	.	.	.	.	.	.	.	16g#XJJ	.	.	.	.	.	16ddd#XJJ	.
.	.	.	32%3r	.	.	.	.	.	.	.	.	.	.	.	.	.	.	.	.	.	.	.	.	.	.	.	.	.	.	.	.	.	.	.	.	.	.	.	.	.	.	.	.	.	.
.	.	.	.	.	.	.	.	.	.	.	.	.	.	.	.	.	.	8E]	.	8BB]	.	8D#]	.	[4ee^)	.	[4aa^)	.	[4een	.	16B-LL]	.	8r	.	8r	.	16fLL]	.	[4a^)	.	8r	.	.	.	[4eee^)	.
.	.	.	32%3x	.	.	.	.	.	.	.	.	.	.	.	.	16%3d^	.	.	.	.	.	.	.	.	.	.	.	.	.	(>16Gn	.	.	.	.	.	(>16dn	.	.	.	.	.	.	.	.	.
.	.	.	.	.	.	.	.	.	.	.	.	.	.	.	.	.	.	8r	.	8r	.	8r	.	.	.	.	.	.	.	16G#X	.	[8b^	fff	[8b^	fff	16d#X	.	.	.	[8dd#X^	.	.	.	.	.
.	.	.	32%3r	.	.	.	.	.	.	.	.	.	.	.	.	.	.	.	.	.	.	.	.	.	.	.	.	.	.	.	.	.	.	.	.	.	.	.	.	.	.	.	.	.	.
.	.	.	.	.	.	.	.	.	.	.	.	.	.	.	.	.	.	.	.	.	.	.	.	.	.	.	.	.	.	16AJJ	.	.	.	.	.	16eJJ	.	.	.	.	.	.	.	.	.
=33	=33	=33	=33	=33	=33	=33	=33	=33	=33	=33	=33	=33	=33	=33	=33	=33	=33	=33	=33	=33	=33	=33	=33	=33	=33	=33	=33	=33	=33	=33	=33	=33	=33	=33	=33	=33	=33	=33	=33	=33	=33	=33	=33	=33	=33
!LO:TX:a:i:t=   moyen(medium)	!	!	!	!	!	!	!	!	!	!	!	!	!	!	!	!	!	!	!	!	!	!	!	!	!	!	!	!	!	!	!	!	!	!	!	!	!	!	!	!	!	!	!	!	!
4%3r	4%3r	.	4%3r	.	4%3r	.	4%3r	.	4%3r	.	16%3r	.	2.x]	.	4%3r	16%3A)	.	[8EL	.	2.BB	.	2.D#X	.	16eeLL]	.	16aaLL]	.	4ee]	.	[4B-X^)	.	4b]	.	4b]	.	[4f^)	.	16aLL]	.	4dd#]	.	4%3r	.	16eeeLL]	.
.	.	.	.	.	.	.	.	.	.	.	.	.	.	.	.	.	.	.	.	.	.	.	.	(>16cc#X	.	(>16ff#X	.	.	.	.	.	.	.	.	.	.	.	(<16f#X	.	.	.	.	.	(>16ccc#X	.
.	.	.	.	.	.	.	.	.	.	.	.	.	.	.	.	.	.	[8EEJ 8E_	.	.	.	.	.	16dd	.	16gg	.	.	.	.	.	.	.	.	.	.	.	16g	.	.	.	.	.	16ddd	.
.	.	.	.	.	.	.	.	.	.	.	8qx/	.	.	.	.	.	.	.	.	.	.	.	.	.	.	.	.	.	.	.	.	.	.	.	.	.	.	.	.	.	.	.	.	.	.
.	.	.	.	.	.	.	.	.	.	.	32%3x	.	.	.	.	(<16%3c^	.	.	.	.	.	.	.	16dd#XJJ	.	16gg#XJJ	.	.	.	.	.	.	.	.	.	.	.	16g#XJJ	.	.	.	.	.	16ddd#XJJ	.
.	.	.	.	.	.	.	.	.	.	.	.	.	.	.	.	.	.	2EE] 2E]	.	.	.	.	.	[4ee^)	.	[4aa^)	.	4b-X	.	16B-LL]	.	12b'L	.	12b'L	.	16fLL]	.	[4a^)	.	12dd#X'L	.	.	.	[4eee^)	.
.	.	.	.	.	.	.	.	.	.	.	32%3r	.	.	.	.	.	.	.	.	.	.	.	.	.	.	.	.	.	.	.	.	.	.	.	.	.	.	.	.	.	.	.	.	.	.
.	.	.	.	.	.	.	.	.	.	.	.	.	.	.	.	.	.	.	.	.	.	.	.	.	.	.	.	.	.	(>16G	.	.	.	.	.	(>16dn	.	.	.	.	.	.	.	.	.
.	.	.	.	.	.	.	.	.	.	.	.	.	.	.	.	.	.	.	.	.	.	.	.	.	.	.	.	.	.	.	.	12b'	.	12b'	.	.	.	.	.	12dd#'	.	.	.	.	.
.	.	.	.	.	.	.	.	.	.	.	8qx/	.	.	.	.	.	.	.	.	.	.	.	.	.	.	.	.	.	.	.	.	.	.	.	.	.	.	.	.	.	.	.	.	.	.
.	.	.	.	.	.	.	.	.	.	.	32%3x	.	.	.	.	16%3A^	.	.	.	.	.	.	.	.	.	.	.	.	.	16G#X	.	.	.	.	.	16d#X	.	.	.	.	.	.	.	.	.
.	.	.	.	.	.	.	.	.	.	.	.	.	.	.	.	.	.	.	.	.	.	.	.	.	.	.	.	.	.	.	.	[12b'J	.	[12b'J	.	.	.	.	.	[12dd#'J	.	.	.	.	.
.	.	.	.	.	.	.	.	.	.	.	.	.	.	.	.	.	.	.	.	.	.	.	.	.	.	.	.	.	.	16AJJ	.	.	.	.	.	16eJJ	.	.	.	.	.	.	.	.	.
.	.	.	.	.	.	.	.	.	.	.	32%3r	.	.	.	.	.	.	.	.	.	.	.	.	.	.	.	.	.	.	.	.	.	.	.	.	.	.	.	.	.	.	.	.	.	.
.	.	.	.	.	.	.	.	.	.	.	.	.	.	.	.	.	.	.	.	.	.	.	.	16eeLL]	.	16aaLL]	.	(>4g	.	[4B-^)	.	4b]	.	4b]	.	[4f^)	.	16aLL]	.	4dd#]	.	.	.	16eeeLL]	.
.	.	.	.	.	.	.	.	.	.	.	8qx/	.	.	.	.	.	.	.	.	.	.	.	.	.	.	.	.	.	.	.	.	.	.	.	.	.	.	.	.	.	.	.	.	.	.
.	.	.	.	.	.	.	.	.	.	.	32%3x	.	.	.	.	16%3d^)	.	.	.	.	.	.	.	(>16cc#	.	(>16ff#	.	.	.	.	.	.	.	.	.	.	.	(<16f#	.	.	.	.	.	(>16ccc#	.
.	.	.	.	.	.	.	.	.	.	.	.	.	.	.	.	.	.	.	.	.	.	.	.	16ddn	.	16ggn	.	.	.	.	.	.	.	.	.	.	.	16g	.	.	.	.	.	16dddn	.
.	.	.	.	.	.	.	.	.	.	.	32%3r	.	.	.	.	.	.	.	.	.	.	.	.	.	.	.	.	.	.	.	.	.	.	.	.	.	.	.	.	.	.	.	.	.	.
.	.	.	.	.	.	.	.	.	.	.	.	.	.	.	.	.	.	.	.	.	.	.	.	16dd#XJJ	.	16gg#XJJ	.	.	.	.	.	.	.	.	.	.	.	16g#XJJ	.	.	.	.	.	16ddd#XJJ	.
=34	=34	=34	=34	=34	=34	=34	=34	=34	=34	=34	=34	=34	=34	=34	=34	=34	=34	=34	=34	=34	=34	=34	=34	=34	=34	=34	=34	=34	=34	=34	=34	=34	=34	=34	=34	=34	=34	=34	=34	=34	=34	=34	=34	=34	=34
!	!	!	!	!	!	!	!LO:TX:a:i:t=suspendue (baguette)	!	!	!	!	!	!	!	!	!	!	!	!	!	!	!	!	!	!	!	!	!	!	!	!	!	!	!	!	!	!	!	!	!	!	!	!	!	!
.	.	.	.	.	.	.	.	.	.	.	8qx/	p	.	.	.	.	.	.	.	.	.	.	.	.	.	.	.	.	.	.	.	.	.	.	.	.	.	.	.	.	.	.	.	.	.
[2x	4%3r	.	2r	.	4r	.	4%3r	.	4%3r	.	8.xL	.	4r	.	4%3r	4%3r	.	8.F#XL	.	8.GG#XL	.	8.C##XL	.	8ee^)	.	8aa^)	.	4b	.	(>4B-X]	.	8.g#X^L	.	8.cc^L	.	(>4f]	.	8a^)	.	8.ddn^L	.	4%3r	.	8eee^)	.
.	.	.	.	.	.	.	.	.	.	.	.	.	.	.	.	.	.	.	.	.	.	.	.	8r	.	8r	.	.	.	.	.	.	.	.	.	.	.	8r	.	.	.	.	.	8r	.
.	.	.	.	.	.	.	.	.	.	.	16xJk	.	.	.	.	.	.	16F#Jk	.	16GG#Jk	.	16CJk	.	.	.	.	.	.	.	.	.	16g#Jk	.	16ccJk	.	.	.	.	.	16ddJk	.	.	.	.	.
.	.	.	.	.	12xL	pp	.	.	.	.	16x	.	2x	.	.	.	.	4EE 4E	.	4BB	.	2D#X	.	4r	.	4r	.	4cc#X	.	[4D)	.	12bL	.	12bL	.	[4G#X)	.	4r	.	12dd#XL	.	.	.	4r	.
.	.	.	.	.	.	.	.	.	.	.	16r	.	.	.	.	.	.	.	.	.	.	.	.	.	.	.	.	.	.	.	.	.	.	.	.	.	.	.	.	.	.	.	.	.	.
.	.	.	.	.	12x	.	.	.	.	.	.	.	.	.	.	.	.	.	.	.	.	.	.	.	.	.	.	.	.	.	.	12b	.	12b	.	.	.	.	.	12dd#	.	.	.	.	.
.	.	.	.	.	.	.	.	.	.	.	8r	.	.	.	.	.	.	.	.	.	.	.	.	.	.	.	.	.	.	.	.	.	.	.	.	.	.	.	.	.	.	.	.	.	.
.	.	.	.	.	8qx/	.	.	.	.	.	.	.	.	.	.	.	.	.	.	.	.	.	.	.	.	.	.	.	.	.	.	.	.	.	.	.	.	.	.	.	.	.	.	.	.
.	.	.	.	.	12x^J	.	.	.	.	.	.	.	.	.	.	.	.	.	.	.	.	.	.	.	.	.	.	.	.	.	.	12bJ	.	12bJ	.	.	.	.	.	[12dd#^J	.	.	.	.	.
8x]	.	.	4x	pp	4r	.	.	.	.	.	4r	.	.	.	.	.	.	8B-X	.	8C	.	.	.	4r	.	4r	.	4ff	.	8D]	.	8cc^	.	8ff^	.	8G#]	.	4r	.	4dd#]	.	.	.	4r	.
8r	.	.	.	.	.	.	.	.	.	.	.	.	.	.	.	.	.	8r	.	8r	.	.	.	.	.	.	.	.	.	8r	.	8r	.	8r	.	8r	.	.	.	.	.	.	.	.	.
=35	=35	=35	=35	=35	=35	=35	=35	=35	=35	=35	=35	=35	=35	=35	=35	=35	=35	=35	=35	=35	=35	=35	=35	=35	=35	=35	=35	=35	=35	=35	=35	=35	=35	=35	=35	=35	=35	=35	=35	=35	=35	=35	=35	=35	=35
!	!	!	!	!	!	!	!	!	!	!	!	!	!LO:TX:t=[quarter]=106	!	!	!	!	!LO:TX:a:i:t=staccatissimo	!	!	!	!LO:TX:a:i:t=staccatissimo	!	!	!	!	!	!	!	!	!	!	!	!	!	!	!	!	!	!	!	!	!	!LO:TX:t=[quarter]=106	!
.	.	.	.	.	.	.	.	.	.	.	8qx/	f	.	.	.	.	.	.	.	.	.	.	.	.	.	.	.	.	.	.	.	.	.	.	.	.	.	.	.	.	.	.	.	.	.
*	*	*	*	*	*	*	*	*	*	*	*	*	*	*	*	*clefF4	*	*	*	*	*	*	*	*	*	*	*	*	*	*	*	*	*	*	*	*	*	*	*	*	*	*	*	*	*
4%3r	20x'LL	f	4r	.	4r	.	4x	f	4x	f	16xLL	.	4%3r	.	2.AAA	16FFvLL 16C#X	.	16AALL	fff	16FFnLL	fff	16C#XLL	fff	20bb-X'LL	fff	20ddd'LL	fff	4.a-X	.	4G^	fff	4f#X^	fff	4f#X^	fff	16fLL	fff	16aLL	fff	16cc#XLL	fff	20ddd'LL	fff	20bbb-X'LL	fff
.	20x'	.	.	.	.	.	.	.	.	.	.	.	.	.	.	.	.	.	.	.	.	.	.	20bb-'J	.	20ddd'J	.	.	.	.	.	.	.	.	.	.	.	.	.	.	.	20ddd'	.	20bbb-'	.
.	.	.	.	.	.	.	.	.	.	.	16x	.	.	.	.	16FFv 16C#	.	16AA	.	16FF	.	16C#	.	.	.	.	.	.	.	.	.	.	.	.	.	16f	.	16a	.	16cc#	.	.	.	.	.
.	20x'	.	.	.	.	.	.	.	.	.	.	.	.	.	.	.	.	.	.	.	.	.	.	10.een^J	<	10.eee-X^J	<	.	.	.	.	.	.	.	.	.	.	.	.	.	.	20eee-X^	.	20eeen^	.
.	.	.	.	.	.	.	.	.	.	.	16x	.	.	.	.	16FFv 16C#	.	16AA	.	16FF	.	16C#	.	.	.	.	.	.	.	.	.	.	.	.	.	16f	.	16a	.	16cc#	.	.	.	.	.
.	20x'	.	.	.	.	.	.	.	.	.	.	.	.	.	.	.	.	.	.	.	.	.	.	.	.	.	.	.	.	.	.	.	.	.	.	.	.	.	.	.	.	20ddd'	.	20bbb-'	.
.	.	.	.	.	.	.	.	.	.	.	16xJJ	.	.	.	.	16FFvJJ 16C#	.	16AAJJ	.	16FFJJ	.	16C#JJ	.	.	.	.	.	.	.	.	.	.	.	.	.	16fJJ	.	16aJJ	.	16cc#JJ	.	.	.	.	.
.	20x'JJ	.	.	.	.	.	.	.	.	.	.	.	.	.	.	.	.	.	.	.	.	.	.	.	.	.	.	.	.	.	.	.	.	.	.	.	.	.	.	.	.	20ddd'JJ	.	20bbb-'JJ	.
!	!	!	!	!	!	!	!	!	!	!	!	!	!	!	!	!LO:TX:b:t=sfff	!	!	!	!	!	!	!	!	!	!	!	!	!	!	!	!	!	!	!	!	!	!	!	!	!	!	!	!	!
.	20x'LL	.	4r	.	16xKL	f	4r	.	4r	.	4r	.	.	.	.	16FFvKL 16C#	.	16AAKL	.	16FFKL	.	16C#KL	.	20bb-'LL	[	20ddd'LL	[	.	.	4G'	.	4f#'	.	4f#'	.	16fKL	.	16aKL	.	16cc#KL	.	20ddd'LL	.	20bbb-'LL	.
.	20x'	.	.	.	.	.	.	.	.	.	.	.	.	.	.	.	.	.	.	.	.	.	.	20bb-'J	.	20ddd'J	.	.	.	.	.	.	.	.	.	.	.	.	.	.	.	20ddd'	.	20bbb-'	.
!	!	!	!	!	!	!	!	!	!	!	!	!	!	!	!	!	!	!LO:TX:b:t=sfff	!	!LO:TX:b:t=sfff	!	!LO:TX:b:t=sfff	!	!	!	!	!	!	!	!	!	!	!	!	!	!	!	!	!	!	!	!	!	!	!
.	.	.	.	.	8.x^J	.	.	.	.	.	.	.	.	.	.	8.FF^J 8.C#	.	8.AA^J	.	8.FF^J	.	8.C#^J	.	.	.	.	.	.	.	.	.	.	.	.	.	8.f^J	.	8.a^J	.	8.cc#^J	.	.	.	.	.
.	20x'	.	.	.	.	.	.	.	.	.	.	.	.	.	.	.	.	.	.	.	.	.	.	10.ee^J	<	10.eee-^J	<	.	.	.	.	.	.	.	.	.	.	.	.	.	.	20eee-^	.	20eee^	.
.	.	.	.	.	.	.	.	.	.	.	.	.	.	.	.	.	.	.	.	.	.	.	.	.	.	.	.	4.ccn)	.	.	.	.	.	.	.	.	.	.	.	.	.	.	.	.	.
.	20x'	.	.	.	.	.	.	.	.	.	.	.	.	.	.	.	.	.	.	.	.	.	.	.	.	.	.	.	.	.	.	.	.	.	.	.	.	.	.	.	.	20ddd'	.	20bbb-'	.
.	20x'JJ	.	.	.	.	.	.	.	.	.	.	.	.	.	.	.	.	.	.	.	.	.	.	.	.	.	.	.	.	.	.	.	.	.	.	.	.	.	.	.	.	20ddd'JJ	.	20bbb-'JJ	.
.	20x'LL	.	16xLL	fff	4r	.	[4x	.	4x	.	4r	.	.	.	.	16FFvLL 16C#	.	16AALL	.	16FFLL	.	16C#LL	.	20bb-'LL	[	20ddd'LL	[	.	.	4G^	.	4f#^	.	4f#^	.	16fLL	.	16aLL	.	16cc#LL	.	20ddd'LL	.	20bbb-'LL	.
.	20x'	.	.	.	.	.	.	.	.	.	.	.	.	.	.	.	.	.	.	.	.	.	.	20bb-'J	.	20ddd'J	.	.	.	.	.	.	.	.	.	.	.	.	.	.	.	20ddd'	.	20bbb-'	.
!	!	!	!	!	!	!	!	!	!	!	!	!	!	!	!	!LO:TX:b:t=sfff	!	!	!	!	!	!	!	!	!	!	!	!	!	!	!	!	!	!	!	!	!	!	!	!	!	!	!	!	!
.	.	.	16xJ	.	.	.	.	.	.	.	.	.	.	.	.	16FFvJ 16C#	.	16AAJ	.	16FFJ	.	16C#J	.	.	.	.	.	.	.	.	.	.	.	.	.	16fJ	.	16aJ	.	16cc#J	.	.	.	.	.
.	20x'	.	.	.	.	.	.	.	.	.	.	.	.	.	.	.	.	.	.	.	.	.	.	10.ee^J	< [	10.eee-^J	< [	.	.	.	.	.	.	.	.	.	.	.	.	.	.	20eee-^	.	20eee^	.
!	!	!	!	!	!	!	!	!	!	!	!	!	!	!	!	!	!	!LO:TX:b:t=sfff	!	!LO:TX:b:t=sfff	!	!LO:TX:b:t=sfff	!	!	!	!	!	!	!	!	!	!	!	!	!	!	!	!	!	!	!	!	!	!	!
.	.	.	8x^J	.	.	.	.	.	.	.	.	.	.	.	.	8FF^J 8C#	.	8AA^J	.	8FF^J	.	8C#^J	.	.	.	.	.	.	.	.	.	.	.	.	.	8f^J	.	8a^J	.	8cc#^J	.	.	.	.	.
.	20x'	.	.	.	.	.	.	.	.	.	.	.	.	.	.	.	.	.	.	.	.	.	.	.	.	.	.	.	.	.	.	.	.	.	.	.	.	.	.	.	.	20ddd'	.	20bbb-'	.
.	20x'JJ	.	.	.	.	.	.	.	.	.	.	.	.	.	.	.	.	.	.	.	.	.	.	.	.	.	.	.	.	.	.	.	.	.	.	.	.	.	.	.	.	20ddd'JJ	.	20bbb-'JJ	.
*	*	*	*	*	*	*	*	*	*	*	*	*	*	*	*	*clefG2	*	*	*	*	*	*	*	*	*	*	*	*	*	*	*	*	*	*	*	*	*	*	*	*	*	*	*	*	*
=	=	=	=	=	=	=	=	=	=	=	=	=	=	=	=	=	=	=	=	=	=	=	=	=	=	=	=	=	=	=	=	=	=	=	=	=	=	=	=	=	=	=	=	=	=
*-	*-	*-	*-	*-	*-	*-	*-	*-	*-	*-	*-	*-	*-	*-	*-	*-	*-	*-	*-	*-	*-	*-	*-	*-	*-	*-	*-	*-	*-	*-	*-	*-	*-	*-	*-	*-	*-	*-	*-	*-	*-	*-	*-	*-	*-
!!!system-decoration: [(s1,s2,s3,s4,s5)][(s6,s7,s8)]s9[(s10,s11,s12,s13,s14)][({(s15,s16)})][(s17,s18,s19,s20,s21,s22,s23,s24)]
!!!RDF**kern: > = above
!!!RDF**kern: < = below
!!!CDT: 1883/12/22-1965/11/06
!!!CBL: Paris, France
!!!CDL: New York, United States
!!!CNT: French, American
!!!AGN: Vocal; Solo
!!!MCN: Salzedo, Carlos
!!!MDT: 1922/04/23
!!!MGN: Ensemble of the International Composers' Guild
!!!MLC: New York, New York, United States of America
!!!MPD: 1922
!!!MPN: Koshetz, Nina
!!!ODT: 1921
!!!PDT: 1960
!!!excerpt-start-measure: 28
!!!excerpt-end-measure: 34
!!!excerpt-start-time: 1:51
!!!excerpt-end-time: 2:00
!!!EEV: 2020/01/25
!!!ONB: Converted from MusicXML on 2020/01/25
